X:1
T:Title
%%score { ( 1 2 ) | ( 3 4 ) }
L:1/8
M:4/4
K:Ab
V:1 treble nm="Grand Piano"
V:2 treble 
V:3 bass 
V:4 bass 
V:1
 z4 z2[Q:1/4=100] E2 | [A,EA]2 [CEA]2 [CA]Bcd | [EAc]2 [EGB]2 [EA]2 [CEA]2 | %3
 [DFA]2 [DF]2 [DFA]2 F2 |[M:3/4] E6 |[M:1/4] E2 |[M:4/4] z FGA B2 E2 | z A[EA][GB] [EAc]2 [FAd]2 | %8
 [EAc]3 [DGB] [CA]2 [B,EG]2 | [CEA]6 z2 | [EGB]2 [GB][Ac] [EBd]2 [EGd]2 | %11
 [EAc]2 [EA]2 [DB]2 [B,G]2 | [A,EA]2 [EA][EA] [EB]2 [Ec]2 | B6 z2 | A4[K:bass] z4[K:treble] | %15
 [CEA][EA][EGd][Gd] [EAc]2 [DFB]2 | A c2 B A2 G2 |[M:3/4] [CEA]6 |] %18
V:2
 z4 z2 z G, | z4 E2 z2 | x8 | x8 |[M:3/4] x6 |[M:1/4] x2 |[M:4/4] E2 z2 z4 | E2 z2 z4 | x8 | x8 | %10
 x8 | z4 E4 | x8 | x8 | z2[K:bass] E,2 [A,E]2[K:treble] [DEG]2 | x8 | x8 |[M:3/4] x6 |] %18
V:3
 z4 z2 E,D, | z4 A,2[K:treble] .E2 | E,2 D,2 C,2 A,,2 | D,2 D,2 D,2 [D,A,D]2 |[M:3/4] [A,C]6 | %5
[M:1/4] [A,C]2 |[M:4/4] E,-[E,A,][E,E]-[E,CE] [E,DE]2 [G,D]2 | [A,C]2 C,E, A,2 D,2 | %8
 E,3 E, E,2 E,2 | A,,6 z2 | z2 EE G,2 B,2 | A,4 z4 | z2 A,A, [B,,G,]2 [A,,A,]2 | [E,G,E]6 z2 | %14
 [A,C]4 C,2 B,,2 | z C z E C,2 D,2 | [CE] [EA]2 [E,DE] [E,CE]2 [E,B,E]2 |[M:3/4] [A,,A,]6 |] %18
V:4
 x8 | C,2 A,,2 z[K:treble] D[A,A]-[A,FA] | x8 | x8 |[M:3/4] x6 |[M:1/4] x2 |[M:4/4] .G,2 .B,2 z4 | %7
 x8 | x8 | x8 | E,4 z4 | z2 C2 E,2 D,2 | C,4 z4 | x8 | x8 | A,,2 B,,2 z4 | E,4 z4 |[M:3/4] x6 |] %18

